X:103
U: ~ = !turn!
%%topmargin 3cm
T:Kerry Reel
B:Traditional Irish Fiddle Tunes. Randy Miller and Jack Perron.
Z:Transcribed by Ralph Palmer
S:Michael Coleman
R:Reel
L:1/8
M:C|
K:EAeo
dc | BE ~E2 BAFA | ABde fded | BE ~E2 BAFA | BFAF E2 FA |
BE ~E2 BAFA | ABde fded | BE ~E2 BAFA | BA ~F2 E2 ::
FA | ((3Bcd) ef g2 fe | dB ~B2 dB A2 | ((3Bcd) e2 ef ((3gfe) dBAF E2 ef |
~g3 a gfeg | ~f3 g fedB | ABde fafe | dBAF E2 :|]
